src/standard/conversation.svg

<svg xmlns="http://www.w3.org/2000/svg" viewBox="0 0 36 36">
  <path d="M23.62 17V6a.62.62 0 0 0-.62-.62H5a.62.62 0 0 0-.62.62v11a.63.63 0 0 0 .62.63h2.38V21a.62.62 0 0 0 1.06.44l3.82-3.82H23a.62.62 0 0 0 .62-.62Zm-1.24-.62H12a.6.6 0 0 0-.44.18l-2.94 2.93c-.07-3.55.68-3.11-3-3.11V6.62h16.76Z"/>
  <path d="M31 14.38h-5a.62.62 0 0 0 0 1.24h4.38v9.76c-3.71 0-2.92-.44-3 3.11l-2.94-2.93a.6.6 0 0 0-.44-.18H13.62V20a.62.62 0 0 0-1.24 0v6a.62.62 0 0 0 .62.62h10.74l3.82 3.82a.62.62 0 0 0 1.06-.44v-3.37H31a.63.63 0 0 0 .62-.63V15a.62.62 0 0 0-.62-.62Z"/>
</svg>

<svg id="fd6c2e05-fdaf-4122-8823-3df2a90ce78a" data-name="Icon" xmlns="http://www.w3.org/2000/svg" viewBox="0 0 36 36">
  <title>Conversation icon - Black</title>
<desc>talk, communicate, collaborate, join in, discussion, converse, debate, people and audiences</desc>
<metadata><?xpacket begin="﻿" id="W5M0MpCehiHzreSzNTczkc9d"?>
<x:xmpmeta xmlns:x="adobe:ns:meta/" x:xmptk="Adobe XMP Core 8.0-c001 1.000000, 0000/00/00-00:00:00        ">
   <rdf:RDF xmlns:rdf="http://www.w3.org/1999/02/22-rdf-syntax-ns#">
      <rdf:Description rdf:about=""
            xmlns:xmp="http://ns.adobe.com/xap/1.0/"
            xmlns:dc="http://purl.org/dc/elements/1.1/"
            xmlns:cq="http://www.day.com/jcr/cq/1.0"
            xmlns:tiff="http://ns.adobe.com/tiff/1.0/">
         <xmp:rhcc-effective-on>2023-12-08T17:33:48.996Z</xmp:rhcc-effective-on>
         <xmp:rhcc-metadata-complete-moderator>pending</xmp:rhcc-metadata-complete-moderator>
         <xmp:rhcc-translation-id>TRA1b9ec7c3-1d9a-4a91-bb78-4cd542460fc6</xmp:rhcc-translation-id>
         <xmp:brand-content-type>Icon</xmp:brand-content-type>
         <xmp:CreateDate>2023-12-08T17:33:48.996Z</xmp:CreateDate>
         <xmp:rhcc-effective-on-set-on-upload>true</xmp:rhcc-effective-on-set-on-upload>
         <xmp:rhcc-metadata-complete-uploader>pending</xmp:rhcc-metadata-complete-uploader>
         <xmp:rhcc-file-last-modified>2023-12-08T17:34:01.881Z</xmp:rhcc-file-last-modified>
         <xmp:rhcc-audience>rhcc-audience:internal</xmp:rhcc-audience>
         <xmp:rhcc-rights-restricted>no</xmp:rhcc-rights-restricted>
         <xmp:brand-content-subtype>Icon</xmp:brand-content-subtype>
         <xmp:rhcc-derivative-id>DER1b9ec7c3-1d9a-4a91-bb78-4cd542460fc6</xmp:rhcc-derivative-id>
         <xmp:brand-logo-color>Black</xmp:brand-logo-color>
         <xmp:rhcc-notify-portal-subscribers-on-change>yes</xmp:rhcc-notify-portal-subscribers-on-change>
         <dc:format>image/svg+xml</dc:format>
         <dc:modified>2024-02-09T20:22:02.870Z</dc:modified>
         <dc:title>
            <rdf:Alt>
               <rdf:li xml:lang="x-default">Conversation icon - Black</rdf:li>
            </rdf:Alt>
         </dc:title>
         <dc:description>
            <rdf:Alt>
               <rdf:li xml:lang="x-default">talk, communicate, collaborate, join in, discussion, converse, debate, people and audiences</rdf:li>
            </rdf:Alt>
         </dc:description>
         <cq:lastReplicationAction_scene7>Activate</cq:lastReplicationAction_scene7>
         <cq:lastReplicationAction_publish>Activate</cq:lastReplicationAction_publish>
         <cq:lastReplicated_publish>2024-02-09T22:01:11.256Z</cq:lastReplicated_publish>
         <cq:lastReplicatedBy>workflow-process-service</cq:lastReplicatedBy>
         <cq:lastReplicationAction>Activate</cq:lastReplicationAction>
         <cq:lastReplicatedBy_publish>workflow-process-service</cq:lastReplicatedBy_publish>
         <cq:isDelivered>true</cq:isDelivered>
         <cq:lastReplicated>2024-02-09T22:01:11.256Z</cq:lastReplicated>
         <cq:lastReplicatedBy_scene7>workflow-process-service</cq:lastReplicatedBy_scene7>
         <cq:lastReplicated_scene7>2024-02-09T22:01:11.256Z</cq:lastReplicated_scene7>
         <tiff:ImageLength>36</tiff:ImageLength>
         <tiff:ImageWidth>36</tiff:ImageWidth>
      </rdf:Description>
   </rdf:RDF>
</x:xmpmeta>
                                                                                                    
                                                                                                    
                                                                                                    
                                                                                                    
                                                                                                    
                                                                                                    
                                                                                                    
                                                                                                    
                                                                                                    
                                                                                                    
                                 
<?xpacket end="w"?></metadata>
<g>
    <path d="M23.62,17V6A.62.62,0,0,0,23,5.38H5A.62.62,0,0,0,4.38,6V17a.63.63,0,0,0,.62.63H7.38V21a.62.62,0,0,0,1.06.44l3.82-3.82H23A.62.62,0,0,0,23.62,17Zm-1.24-.62H12a.6.6,0,0,0-.44.18L8.62,19.49c-.07-3.55.68-3.11-3-3.11V6.62H22.38Z"/>
    <path d="M31,14.38H26a.62.62,0,0,0,0,1.24h4.38v9.76c-3.71,0-2.92-.44-3,3.11l-2.94-2.93a.6.6,0,0,0-.44-.18H13.62V20a.62.62,0,0,0-1.24,0v6a.62.62,0,0,0,.62.62H23.74l3.82,3.82A.62.62,0,0,0,28.62,30V26.63H31a.63.63,0,0,0,.62-.63V15A.62.62,0,0,0,31,14.38Z"/>
  </g>
</svg>
